X: 4
T: The Holly Bush
R: reel
M: 4/4
L: 1/8
K: Dmix
|:A2 FA DFAG|FAde fded|cG G2 EG G2|(3Bcd ed cAGc |
ADFA DFAG|FAde fded|cG G2 (3Bcd ed|cAGE D4:||
|:Add^c defg|adde dcAB|cG G2 (3Bcd eg|aged cAGc|
Add^c defg |adde dcAB|cG G2 (3Bcd ed|cAGE D4:||


Tune 1566	Setting 14976

